public/pieces/pixel/wB.svg

<svg shape-rendering="crispEdges" viewBox="0 -.5 16 16" xmlns="http://www.w3.org/2000/svg"><path d="m7 1h2m-3 1h1m2 0h1m-4 1h1m2 0h1m-3 1h2m-3 1h1m2 0h1m-5 1h1m4 0h1m-7 1h1m4 0h1m1 0h1m-8 1h1m3 0h1m2 0h1m-8 1h1m6 0h1m-8 1h1m6 0h1m-7 1h1m4 0h1m-7 1h8m-9 1h1m8 0h1m-10 1h10" stroke="#000"/><path d="m7 2h1m-2 4h1m-2 1h1" stroke="#fdfdfd"/><path d="m8 2h1m-1 1h1m-1 2h1m1 2h1m-1 1h1m-1 1h1m-1 1h1m-2 1h1m-1 2h3" stroke="#a7a7a7"/><path d="m7 3h1m-3 5h1m-1 1h1m-1 1h1m0 1h1m-3 2h2" stroke="#e1e1e1"/><path d="m7 5h1m-1 1h2m-3 1h2m-2 1h2m1 0h1m-4 1h4m-4 1h4m-3 1h2m-3 2h3" stroke="#c1c1c1"/></svg>

<svg xmlns="http://www.w3.org/2000/svg" viewBox="0 -0.5 16 16" shape-rendering="crispEdges">
<metadata>Made with Pixels to Svg https://codepen.io/shshaw/pen/XbxvNj</metadata>
<path stroke="#000000" d="M7 1h2M6 2h1M9 2h1M6 3h1M9 3h1M7 4h2M6 5h1M9 5h1M5 6h1M10 6h1M4 7h1M9 7h1M11 7h1M4 8h1M8 8h1M11 8h1M4 9h1M11 9h1M4 10h1M11 10h1M5 11h1M10 11h1M4 12h8M3 13h1M12 13h1M3 14h10" />
<path stroke="#fdfdfd" d="M7 2h1M6 6h1M5 7h1" />
<path stroke="#a7a7a7" d="M8 2h1M8 3h1M8 5h1M10 7h1M10 8h1M10 9h1M10 10h1M9 11h1M9 13h3" />
<path stroke="#e1e1e1" d="M7 3h1M5 8h1M5 9h1M5 10h1M6 11h1M4 13h2" />
<path stroke="#c1c1c1" d="M7 5h1M7 6h2M6 7h2M6 8h2M9 8h1M6 9h4M6 10h4M7 11h2M6 13h3" />
</svg>
